;FLAVOR:Marlin
;TIME:3077
;Filament used: 2.91085m
;Layer height: 0.2
;MINX:88.817
;MINY:88.817
;MINZ:0.2
;MAXX:131.183
;MAXY:131.182
;MAXZ:40
;Generated with Cura_SteamEngine 4.7.1
M140 S60
M105
M190 S60
M104 S220
M105
M109 S220
M82 ;absolute extrusion mode
M201 X500.00 Y500.00 Z100.00 E5000.00 ;Setup machine max acceleration
M203 X500.00 Y500.00 Z10.00 E50.00 ;Setup machine max feedrate
M204 P500.00 R1000.00 T500.00 ;Setup Print/Retract/Travel acceleration
M205 X8.00 Y8.00 Z0.40 E5.00 ;Setup Jerk
M220 S100 ;Reset Feedrate
M221 S100 ;Reset Flowrate

G28 ;Home

G92 E0 ;Reset Extruder
G1 Z2.0 F3000 ;Move Z Axis up
G1 X10.1 Y20 Z0.28 F5000.0 ;Move to start position
G1 X10.1 Y200.0 Z0.28 F1500.0 E15 ;Draw the first line
G1 X10.4 Y200.0 Z0.28 F5000.0 ;Move to side a little
G1 X10.4 Y20 Z0.28 F1500.0 E30 ;Draw the second line
G92 E0 ;Reset Extruder
G1 Z2.0 F3000 ;Move Z Axis up

G92 E0
G92 E0
G1 F2700 E-2.5
;LAYER_COUNT:200
;LAYER:0
M107
G0 F6000 X95.326 Y94.719 Z0.2
;TYPE:SKIRT
G1 F2700 E0
G1 F1200 X95.55 Y94.511 E0.0122
G1 X95.553 Y94.514 E0.01237
G1 X95.817 Y94.268 E0.02677
G1 X96.13 Y93.996 E0.04332
G1 X96.636 Y93.564 E0.06988
G1 X97.362 Y92.994 E0.10672
G1 X97.573 Y92.842 E0.1171
G1 X97.845 Y92.652 E0.13034
G1 X98.055 Y92.51 E0.14046
G1 X98.232 Y92.393 E0.14892
G1 X98.91 Y91.953 E0.18118
G1 X99.75 Y91.459 E0.22008
G1 X100.019 Y91.316 E0.23224
G1 X100.284 Y91.179 E0.24414
G1 X100.703 Y90.972 E0.2628
G1 X101.356 Y90.661 E0.29166
G1 X102.216 Y90.295 E0.32897
G1 X102.457 Y90.204 E0.33925
G1 X102.755 Y90.096 E0.3519
G1 X103.108 Y89.974 E0.36681
G1 X103.32 Y89.903 E0.37573
G1 X103.957 Y89.697 E0.40245
G1 X104.809 Y89.459 E0.43776
G1 X105.04 Y89.404 E0.44724
G1 X105.347 Y89.335 E0.45979
G1 X105.673 Y89.267 E0.47309
G1 X105.955 Y89.212 E0.48455
G1 X106.708 Y89.075 E0.5151
G1 X107.653 Y88.944 E0.55318
G1 X107.958 Y88.915 E0.56541
G1 X108.257 Y88.891 E0.57738
G1 X108.536 Y88.872 E0.58854
G1 X109.433 Y88.825 E0.62439
G1 X110.397 Y88.817 E0.66287
G1 X110.825 Y88.833 E0.67996
G1 X111.159 Y88.852 E0.69331
G1 X111.545 Y88.878 E0.70875
G1 X112.201 Y88.931 E0.73502
G1 X113.14 Y89.047 E0.77278
G1 X113.428 Y89.095 E0.78444
G1 X113.73 Y89.15 E0.79669
G1 X114.048 Y89.212 E0.80962
G1 X114.277 Y89.259 E0.81895
G1 X114.96 Y89.407 E0.84684
G1 X115.814 Y89.628 E0.88205
G1 X116.07 Y89.705 E0.89272
G1 X116.352 Y89.794 E0.90452
G1 X116.637 Y89.888 E0.9165
G1 X116.883 Y89.972 E0.92688
G1 X117.583 Y90.221 E0.95653
G1 X118.429 Y90.561 E0.99292
G1 X118.631 Y90.652 E1.00176
G1 X118.924 Y90.79 E1.01469
G1 X119.239 Y90.943 E1.02867
G1 X119.457 Y91.051 E1.03838
G1 X120.12 Y91.391 E1.06811
G1 X120.927 Y91.848 E1.10513
G1 X121.115 Y91.965 E1.11397
G1 X121.358 Y92.121 E1.12549
G1 X121.651 Y92.314 E1.1395
G1 X121.845 Y92.445 E1.14884
G1 X122.44 Y92.855 E1.17768
G1 X123.162 Y93.396 E1.21369
G1 X123.346 Y93.546 E1.22316
G1 X123.624 Y93.78 E1.23766
G1 X123.887 Y94.009 E1.25158
G1 X124.036 Y94.141 E1.25953
G1 X124.559 Y94.613 E1.28765
G1 X125.219 Y95.261 E1.32456
G1 X125.435 Y95.491 E1.33716
G1 X125.69 Y95.772 E1.3523
G1 X125.975 Y96.098 E1.36958
G1 X126.448 Y96.652 E1.39866
G1 X127.023 Y97.385 E1.43584
G1 X127.151 Y97.563 E1.44459
G1 X127.313 Y97.794 E1.45585
G1 X127.499 Y98.068 E1.46907
G1 X127.691 Y98.358 E1.48295
G1 X128.042 Y98.9 E1.50872
G1 X128.518 Y99.707 E1.54612
G1 X128.672 Y99.995 E1.55915
G1 X128.821 Y100.284 E1.57213
G1 X128.942 Y100.527 E1.58296
G1 X129.031 Y100.71 E1.59109
G1 X129.34 Y101.36 E1.61981
G1 X129.691 Y102.18 E1.65541
G1 X129.784 Y102.424 E1.66583
G1 X129.9 Y102.745 E1.67946
G1 X130.022 Y103.097 E1.69433
G1 X130.095 Y103.314 E1.70346
G1 X130.301 Y103.95 E1.73015
G1 X130.546 Y104.828 E1.76653
G1 X130.601 Y105.061 E1.77608
G1 X130.665 Y105.347 E1.78778
G1 X130.733 Y105.673 E1.80107
G1 X130.787 Y105.95 E1.81233
G1 X130.924 Y106.701 E1.8428
G1 X131.057 Y107.661 E1.88148
G1 X131.086 Y107.969 E1.89383
G1 X131.109 Y108.255 E1.90528
G1 X131.128 Y108.533 E1.91641
G1 X131.139 Y108.721 E1.92392
G1 X131.175 Y109.42 E1.95186
G1 X131.183 Y110.379 E1.99013
G1 X131.167 Y110.825 E2.00795
G1 X131.148 Y111.159 E2.0213
G1 X131.122 Y111.544 E2.0367
G1 X131.069 Y112.201 E2.06301
G1 X130.953 Y113.141 E2.10081
G1 X130.905 Y113.429 E2.11246
G1 X130.849 Y113.735 E2.12488
G1 X130.75 Y114.235 E2.14522
G1 X130.601 Y114.931 E2.17363
G1 X130.358 Y115.865 E2.21215
G1 X130.279 Y116.123 E2.22292
G1 X130.206 Y116.352 E2.23251
G1 X130.112 Y116.637 E2.24449
G1 X130.032 Y116.871 E2.25436
G1 X129.786 Y117.565 E2.28375
G1 X129.43 Y118.45 E2.32182
G1 X129.342 Y118.644 E2.33032
G1 X129.219 Y118.905 E2.34184
G1 X129.056 Y119.241 E2.35674
G1 X128.953 Y119.449 E2.36601
G1 X128.625 Y120.091 E2.39478
G1 X128.155 Y120.921 E2.43285
G1 X127.991 Y121.184 E2.44522
G1 X127.817 Y121.454 E2.45804
G1 X127.539 Y121.87 E2.47801
G1 X127.151 Y122.433 E2.5053
G1 X126.616 Y123.147 E2.54091
G1 X126.463 Y123.335 E2.55059
G1 X126.23 Y123.611 E2.565
G1 X125.998 Y123.878 E2.57912
G1 X125.849 Y124.046 E2.58808
G1 X125.374 Y124.571 E2.61634
G1 X124.734 Y125.225 E2.65286
G1 X124.498 Y125.447 E2.66579
G1 X124.183 Y125.732 E2.68275
G1 X123.861 Y126.012 E2.69978
G1 X123.348 Y126.449 E2.72667
G1 X122.617 Y127.021 E2.76372
G1 X122.422 Y127.161 E2.7733
G1 X122.165 Y127.34 E2.7858
G1 X121.719 Y127.64 E2.80726
G1 X121.097 Y128.044 E2.83686
G1 X120.246 Y128.544 E2.87625
G1 X120.018 Y128.665 E2.88655
G1 X119.789 Y128.783 E2.89684
G1 X119.47 Y128.943 E2.91108
G1 X119.256 Y129.048 E2.92059
G1 X118.565 Y129.376 E2.95112
G1 X117.708 Y129.735 E2.98821
G1 X117.306 Y129.883 E3.0053
G1 X117.017 Y129.984 E3.01752
G1 X116.672 Y130.099 E3.03204
G1 X116.037 Y130.304 E3.05867
G1 X115.224 Y130.533 E3.09238
G1 X114.992 Y130.589 E3.10191
G1 X114.606 Y130.675 E3.11769
G1 X114.239 Y130.75 E3.13264
G1 X114.013 Y130.794 E3.14183
G1 X113.319 Y130.921 E3.16999
G1 X112.388 Y131.051 E3.20751
G1 X112.09 Y131.08 E3.21946
G1 X111.773 Y131.107 E3.23216
G1 X111.482 Y131.127 E3.2438
G1 X110.578 Y131.175 E3.27993
G1 X109.586 Y131.182 E3.31952
G1 X109.116 Y131.163 E3.3383
G1 X108.766 Y131.143 E3.35229
G1 X108.484 Y131.123 E3.36357
G1 X107.769 Y131.064 E3.39221
G1 X106.843 Y130.949 E3.42945
G1 X106.514 Y130.894 E3.44276
G1 X106.189 Y130.834 E3.45595
G1 X105.766 Y130.749 E3.47317
G1 X105.077 Y130.602 E3.50129
G1 X104.131 Y130.357 E3.54029
G1 X103.844 Y130.269 E3.55228
G1 X103.598 Y130.19 E3.56259
G1 X103.342 Y130.105 E3.57335
G1 X103.117 Y130.028 E3.58285
G1 X102.417 Y129.779 E3.6125
G1 X101.557 Y129.432 E3.64951
G1 X101.369 Y129.347 E3.65775
G1 X101.095 Y129.219 E3.66982
G1 X100.759 Y129.056 E3.68472
G1 X100.551 Y128.953 E3.69399
G1 X99.909 Y128.625 E3.72276
G1 X99.086 Y128.159 E3.76051
G1 X98.837 Y128.004 E3.77221
G1 X98.579 Y127.839 E3.78444
G1 X98.34 Y127.681 E3.79587
G1 X98.163 Y127.561 E3.80441
G1 X97.565 Y127.149 E3.83339
G1 X96.809 Y126.58 E3.87116
G1 X96.624 Y126.428 E3.88071
G1 X96.415 Y126.252 E3.89162
G1 X96.159 Y126.031 E3.90512
G1 X95.98 Y125.873 E3.91465
G1 X95.433 Y125.38 E3.94404
G1 X94.725 Y124.683 E3.98369
G1 X94.542 Y124.486 E3.99442
G1 X94.366 Y124.292 E4.00488
G1 X94.179 Y124.081 E4.01613
G1 X93.559 Y123.358 E4.05414
G1 X92.931 Y122.552 E4.09492
G1 X92.687 Y122.205 E4.11185
G1 X92.492 Y121.919 E4.12567
G1 X92.302 Y121.631 E4.13944
G1 X91.946 Y121.08 E4.16562
G1 X91.463 Y120.258 E4.20368
G1 X91.311 Y119.972 E4.2166
G1 X91.158 Y119.674 E4.22997
G1 X90.97 Y119.29 E4.24704
G1 X90.644 Y118.605 E4.27731
G1 X90.268 Y117.718 E4.31577
G1 X90.204 Y117.547 E4.32305
G1 X90.108 Y117.283 E4.33427
G1 X89.989 Y116.939 E4.34879
G1 X89.911 Y116.703 E4.35871
G1 X89.688 Y116.009 E4.38781
G1 X89.449 Y115.148 E4.42347
G1 X89.397 Y114.927 E4.43253
G1 X89.333 Y114.64 E4.44427
G1 X89.279 Y114.38 E4.45487
G1 X89.236 Y114.162 E4.46374
G1 X89.088 Y113.371 E4.49585
G1 X88.933 Y112.208 E4.54268
G1 X88.88 Y111.548 E4.56911
G1 X88.859 Y111.233 E4.58171
G1 X88.825 Y110.58 E4.60781
G1 X88.817 Y109.607 E4.64664
G1 X88.827 Y109.321 E4.65807
G1 X88.842 Y109.011 E4.67045
G1 X88.864 Y108.66 E4.68449
G1 X88.879 Y108.453 E4.69277
G1 X88.934 Y107.777 E4.71984
G1 X89.048 Y106.851 E4.75708
G1 X89.09 Y106.598 E4.76732
G1 X89.144 Y106.298 E4.77948
G1 X89.203 Y105.994 E4.79184
G1 X89.244 Y105.794 E4.79999
G1 X89.397 Y105.076 E4.82929
G1 X89.636 Y104.151 E4.86742
G1 X89.702 Y103.934 E4.87647
G1 X89.788 Y103.661 E4.8879
G1 X89.895 Y103.339 E4.90144
G1 X89.97 Y103.121 E4.91064
G1 X90.218 Y102.423 E4.94021
G1 X90.569 Y101.553 E4.97765
G1 X90.689 Y101.288 E4.98926
G1 X90.841 Y100.967 E5.00344
G1 X91.074 Y100.496 E5.02441
G1 X91.381 Y99.898 E5.05124
G1 X91.835 Y99.097 E5.08799
G1 X92.026 Y98.79 E5.10242
G1 X92.224 Y98.484 E5.11696
G1 X92.471 Y98.116 E5.13465
G1 X92.87 Y97.539 E5.16265
G1 X93.422 Y96.807 E5.19924
G1 X93.577 Y96.618 E5.209
G1 X93.783 Y96.373 E5.22178
G1 X94.002 Y96.121 E5.2351
G1 X94.156 Y95.949 E5.24432
G1 X94.647 Y95.407 E5.2735
G1 X95.326 Y94.719 E5.31208
G0 F6000 X95.653 Y95.07
G1 F1200 X95.877 Y94.862 E5.32429
G1 X95.879 Y94.864 E5.3244
G1 X96.132 Y94.63 E5.33815
G1 X96.441 Y94.361 E5.3545
G1 X96.947 Y93.929 E5.38106
G1 X97.642 Y93.384 E5.41631
G1 X97.853 Y93.232 E5.42669
G1 X98.114 Y93.05 E5.43939
G1 X98.324 Y92.908 E5.44951
G1 X98.493 Y92.796 E5.4576
G1 X99.171 Y92.356 E5.48986
G1 X99.975 Y91.882 E5.52711
G1 X100.244 Y91.739 E5.53927
G1 X100.498 Y91.609 E5.55066
G1 X100.741 Y91.488 E5.56149
G1 X100.91 Y91.406 E5.56899
G1 X101.563 Y91.095 E5.59786
G1 X102.385 Y90.744 E5.63353
G1 X102.626 Y90.653 E5.64381
G1 X102.911 Y90.55 E5.65591
G1 X103.264 Y90.428 E5.67081
G1 X103.467 Y90.36 E5.67936
G1 X104.104 Y90.154 E5.70608
G1 X104.92 Y89.926 E5.73989
G1 X105.151 Y89.871 E5.74937
G1 X105.445 Y89.805 E5.7614
G1 X105.771 Y89.737 E5.77469
G1 X106.041 Y89.684 E5.78567
G1 X106.794 Y89.547 E5.81622
G1 X107.698 Y89.422 E5.85264
G1 X108.003 Y89.393 E5.86487
G1 X108.29 Y89.37 E5.87636
G1 X108.751 Y89.34 E5.8948
G1 X109.457 Y89.304 E5.92301
G1 X110.38 Y89.297 E5.95985
G1 X110.801 Y89.313 E5.97667
G1 X111.127 Y89.331 E5.9897
G1 X111.506 Y89.357 E6.00486
G1 X112.162 Y89.41 E6.03113
G1 X113.061 Y89.521 E6.06728
G1 X113.349 Y89.569 E6.07894
G1 X113.638 Y89.621 E6.09066
G1 X113.956 Y89.683 E6.10359
G1 X114.175 Y89.728 E6.11251
G1 X114.858 Y89.876 E6.1404
G1 X115.676 Y90.087 E6.17412
G1 X115.932 Y90.164 E6.18479
G1 X116.202 Y90.249 E6.19609
G1 X116.487 Y90.343 E6.20807
G1 X116.722 Y90.424 E6.21799
G1 X117.422 Y90.673 E6.24764
G1 X118.232 Y90.999 E6.28249
G1 X118.434 Y91.09 E6.29133
G1 X118.715 Y91.221 E6.30371
G1 X119.03 Y91.374 E6.31768
G1 X119.238 Y91.478 E6.32696
G1 X119.901 Y91.818 E6.3567
G1 X120.673 Y92.256 E6.39213
G1 X120.861 Y92.373 E6.40097
G1 X121.094 Y92.522 E6.412
G1 X121.387 Y92.715 E6.42601
G1 X121.573 Y92.84 E6.43495
G1 X122.168 Y93.25 E6.46379
G1 X122.859 Y93.768 E6.49826
G1 X123.043 Y93.918 E6.50774
G1 X123.309 Y94.142 E6.52162
G1 X123.572 Y94.371 E6.53553
G1 X124.237 Y94.97 E6.57125
G1 X124.869 Y95.589 E6.60656
G1 X125.085 Y95.819 E6.61916
G1 X125.329 Y96.088 E6.63365
G1 X125.61 Y96.409 E6.65068
G1 X126.083 Y96.963 E6.67975
G1 X126.633 Y97.665 E6.71535
G1 X126.761 Y97.843 E6.7241
G1 X126.916 Y98.065 E6.7349
G1 X127.1 Y98.335 E6.74794
G1 X127.288 Y98.619 E6.76154
G1 X127.639 Y99.161 E6.78731
G1 X128.094 Y99.933 E6.82308
G1 X128.248 Y100.221 E6.83611
G1 X128.391 Y100.498 E6.84855
G1 X128.598 Y100.916 E6.86717
G1 X128.907 Y101.566 E6.89589
G1 X129.242 Y102.351 E6.92996
G1 X129.335 Y102.595 E6.94038
G1 X129.447 Y102.902 E6.95342
G1 X129.569 Y103.254 E6.96829
G1 X129.638 Y103.462 E6.97704
G1 X129.844 Y104.098 E7.00372
G1 X130.079 Y104.938 E7.03854
G1 X130.134 Y105.171 E7.04809
G1 X130.195 Y105.445 E7.05929
G1 X130.263 Y105.771 E7.07259
G1 X130.315 Y106.036 E7.08336
G1 X130.452 Y106.787 E7.11383
G1 X130.579 Y107.706 E7.15086
G1 X130.608 Y108.014 E7.16321
G1 X130.63 Y108.288 E7.17418
G1 X130.66 Y108.746 E7.1925
G1 X130.696 Y109.445 E7.22043
G1 X130.704 Y110.363 E7.25707
G1 X130.695 Y110.626 E7.26758
G1 X130.679 Y110.959 E7.28088
G1 X130.654 Y111.353 E7.29664
G1 X130.643 Y111.505 E7.30272
G1 X130.59 Y112.162 E7.32903
G1 X130.479 Y113.062 E7.36522
G1 X130.431 Y113.35 E7.37688
G1 X130.378 Y113.643 E7.38876
G1 X130.319 Y113.945 E7.40104
G1 X130.28 Y114.134 E7.40874
G1 X130.131 Y114.83 E7.43715
G1 X129.899 Y115.725 E7.47405
G1 X129.82 Y115.983 E7.48482
G1 X129.751 Y116.202 E7.49399
G1 X129.657 Y116.487 E7.50597
G1 X129.58 Y116.711 E7.51542
G1 X129.334 Y117.405 E7.54481
G1 X128.993 Y118.251 E7.58121
G1 X128.905 Y118.445 E7.58972
G1 X128.787 Y118.696 E7.60079
G1 X128.624 Y119.032 E7.61569
G1 X128.525 Y119.23 E7.62453
G1 X128.197 Y119.872 E7.6533
G1 X127.747 Y120.667 E7.68976
G1 X127.583 Y120.93 E7.70213
G1 X127.417 Y121.188 E7.71438
G1 X127.144 Y121.597 E7.734
G1 X126.756 Y122.16 E7.76129
G1 X126.244 Y122.844 E7.79539
G1 X126.091 Y123.032 E7.80507
G1 X125.868 Y123.296 E7.81886
G1 X125.636 Y123.563 E7.83298
G1 X125.493 Y123.724 E7.84157
G1 X125.018 Y124.249 E7.86983
G1 X124.405 Y124.875 E7.9048
G1 X124.169 Y125.097 E7.91773
G1 X123.868 Y125.37 E7.93395
G1 X123.55 Y125.647 E7.95078
G1 X123.037 Y126.084 E7.97768
G1 X122.337 Y126.631 E8.01314
G1 X122.142 Y126.771 E8.02272
G1 X121.897 Y126.942 E8.03464
G1 X121.625 Y127.126 E8.04775
G1 X121.457 Y127.237 E8.05578
G1 X120.835 Y127.641 E8.08539
G1 X120.021 Y128.12 E8.12308
G1 X119.793 Y128.241 E8.13338
G1 X119.574 Y128.354 E8.14322
G1 X119.255 Y128.514 E8.15746
G1 X119.05 Y128.614 E8.16657
G1 X118.361 Y128.942 E8.19702
G1 X117.541 Y129.285 E8.2325
G1 X117.146 Y129.43 E8.24929
G1 X116.863 Y129.529 E8.26126
G1 X116.524 Y129.643 E8.27554
G1 X115.889 Y129.848 E8.30217
G1 X115.111 Y130.067 E8.33443
G1 X114.879 Y130.123 E8.34395
G1 X114.51 Y130.205 E8.35904
G1 X114.143 Y130.28 E8.37399
G1 X113.927 Y130.322 E8.38277
G1 X113.233 Y130.449 E8.41093
G1 X112.341 Y130.574 E8.44688
G1 X112.043 Y130.603 E8.45883
G1 X111.74 Y130.628 E8.47096
G1 X111.268 Y130.659 E8.48984
G1 X110.553 Y130.696 E8.51842
G1 X109.604 Y130.703 E8.5563
G1 X109.36 Y130.694 E8.56604
G1 X109.143 Y130.684 E8.57471
G1 X108.793 Y130.664 E8.5887
G1 X108.523 Y130.645 E8.59951
G1 X107.808 Y130.586 E8.62814
G1 X106.922 Y130.475 E8.66378
G1 X106.593 Y130.42 E8.67709
G1 X106.282 Y130.364 E8.68971
G1 X106.024 Y130.313 E8.7002
G1 X105.177 Y130.133 E8.73476
G1 X104.271 Y129.898 E8.77212
G1 X103.984 Y129.81 E8.7841
G1 X103.749 Y129.735 E8.79395
G1 X103.493 Y129.65 E8.80471
G1 X103.278 Y129.576 E8.81379
G1 X102.578 Y129.327 E8.84344
G1 X101.755 Y128.995 E8.87886
G1 X101.567 Y128.91 E8.8871
G1 X101.304 Y128.787 E8.89868
G1 X100.968 Y128.624 E8.91359
G1 X100.77 Y128.525 E8.92242
G1 X100.128 Y128.197 E8.9512
G1 X99.34 Y127.752 E8.98732
G1 X99.091 Y127.597 E8.99902
G1 X98.844 Y127.439 E9.01073
G1 X98.605 Y127.281 E9.02216
G1 X98.435 Y127.166 E9.03035
G1 X97.837 Y126.754 E9.05934
G1 X97.114 Y126.209 E9.09547
G1 X96.929 Y126.057 E9.10503
G1 X96.729 Y125.889 E9.11545
G1 X96.473 Y125.668 E9.12895
G1 X96.301 Y125.516 E9.13811
G1 X95.754 Y125.023 E9.1675
G1 X95.077 Y124.356 E9.20544
G1 X94.894 Y124.159 E9.21617
G1 X94.725 Y123.973 E9.2262
G1 X94.538 Y123.762 E9.23745
G1 X93.924 Y123.046 E9.2751
G1 X93.322 Y122.274 E9.31417
G1 X93.083 Y121.934 E9.33076
G1 X92.891 Y121.652 E9.34437
G1 X92.705 Y121.371 E9.35782
G1 X92.349 Y120.82 E9.38401
G1 X91.887 Y120.033 E9.42043
G1 X91.735 Y119.747 E9.43336
G1 X91.589 Y119.462 E9.44614
G1 X91.403 Y119.084 E9.46295
G1 X91.077 Y118.399 E9.49323
G1 X90.717 Y117.55 E9.53003
G1 X90.653 Y117.379 E9.53732
G1 X90.562 Y117.126 E9.54805
G1 X90.443 Y116.782 E9.56258
G1 X90.368 Y116.556 E9.57209
G1 X90.145 Y115.862 E9.60118
G1 X89.916 Y115.038 E9.63531
G1 X89.864 Y114.817 E9.64437
G1 X89.803 Y114.542 E9.65562
G1 X89.749 Y114.282 E9.66622
G1 X89.708 Y114.074 E9.67468
G1 X89.56 Y113.283 E9.7068
G1 X89.411 Y112.169 E9.75165
G1 X89.358 Y111.509 E9.77808
G1 X89.339 Y111.208 E9.79012
G1 X89.305 Y110.555 E9.81622
G1 X89.297 Y109.623 E9.85342
G1 X89.307 Y109.337 E9.86484
G1 X89.321 Y109.041 E9.87666
G1 X89.343 Y108.69 E9.8907
G1 X89.357 Y108.492 E9.89862
G1 X89.412 Y107.816 E9.92569
G1 X89.522 Y106.929 E9.96137
G1 X89.564 Y106.676 E9.9716
G1 X89.615 Y106.39 E9.9832
G1 X89.674 Y106.086 E9.99556
G1 X89.713 Y105.894 E10.00338
G1 X89.866 Y105.176 E10.03268
