;FLAVOR:Marlin
;TIME:7085
;Filament used: 6.75933m
;Layer height: 0.2
;MINX:73.8
;MINY:78.8
;MINZ:0.2
;MAXX:146.2
;MAXY:141.2
;MAXZ:20
;Generated with Cura_SteamEngine 4.7.1
M140 S60
M105
M190 S60
M104 S220
M105
M109 S220
M82 ;absolute extrusion mode
M201 X500.00 Y500.00 Z100.00 E5000.00 ;Setup machine max acceleration
M203 X500.00 Y500.00 Z10.00 E50.00 ;Setup machine max feedrate
M204 P500.00 R1000.00 T500.00 ;Setup Print/Retract/Travel acceleration
M205 X8.00 Y8.00 Z0.40 E5.00 ;Setup Jerk
M220 S100 ;Reset Feedrate
M221 S100 ;Reset Flowrate

G28 ;Home

G92 E0 ;Reset Extruder
G1 Z2.0 F3000 ;Move Z Axis up
G1 X10.1 Y20 Z0.28 F5000.0 ;Move to start position
G1 X10.1 Y200.0 Z0.28 F1500.0 E15 ;Draw the first line
G1 X10.4 Y200.0 Z0.28 F5000.0 ;Move to side a little
G1 X10.4 Y20 Z0.28 F1500.0 E30 ;Draw the second line
G92 E0 ;Reset Extruder
G1 Z2.0 F3000 ;Move Z Axis up

G92 E0
G92 E0
G1 F2700 E-2.5
;LAYER_COUNT:100
;LAYER:0
M107
G0 F6000 X77.001 Y82.178 Z0.2
;TYPE:SKIRT
G1 F2700 E0
G1 F1200 X77.691 Y81.53 E0.03778
G1 X78.433 Y80.943 E0.07554
G1 X79.222 Y80.42 E0.11332
G1 X80.052 Y79.966 E0.15108
G1 X80.918 Y79.583 E0.18887
G1 X81.812 Y79.275 E0.22661
G1 X82.73 Y79.043 E0.26441
G1 X83.664 Y78.89 E0.30218
G1 X84.695 Y78.813 E0.34344
G1 X85.016 Y78.804 E0.35626
G1 X85.33 Y78.8 E0.36879
G1 X134.453 Y78.801 E2.3294
G1 X135.151 Y78.811 E2.35726
G1 X136.096 Y78.865 E2.39504
G1 X137.033 Y78.998 E2.43281
G1 X137.956 Y79.209 E2.4706
G1 X138.857 Y79.498 E2.50837
G1 X139.73 Y79.862 E2.54612
G1 X140.57 Y80.299 E2.58391
G1 X141.37 Y80.804 E2.62167
G1 X142.125 Y81.376 E2.65947
G1 X142.828 Y82.009 E2.69723
G1 X143.475 Y82.699 E2.73498
G1 X144.062 Y83.441 E2.77274
G1 X144.585 Y84.23 E2.81053
G1 X145.038 Y85.061 E2.8483
G1 X145.42 Y85.927 E2.88608
G1 X145.728 Y86.822 E2.92386
G1 X145.958 Y87.74 E2.96163
G1 X146.111 Y88.674 E2.9994
G1 X146.187 Y89.695 E3.04026
G1 X146.196 Y90.015 E3.05304
G1 X146.2 Y90.33 E3.06562
G1 X146.199 Y129.403 E4.6251
G1 X146.19 Y130.13 E4.65412
G1 X146.138 Y131.075 E4.6919
G1 X146.007 Y132.012 E4.72966
G1 X145.797 Y132.935 E4.76744
G1 X145.51 Y133.836 E4.80518
G1 X145.148 Y134.711 E4.84297
G1 X144.713 Y135.551 E4.88073
G1 X144.209 Y136.352 E4.9185
G1 X143.639 Y137.108 E4.95629
G1 X143.008 Y137.812 E4.99402
G1 X142.319 Y138.461 E5.0318
G1 X141.577 Y139.05 E5.06961
G1 X140.789 Y139.573 E5.10736
G1 X139.96 Y140.029 E5.14512
G1 X139.094 Y140.412 E5.18291
G1 X138.2 Y140.721 E5.22067
G1 X137.283 Y140.954 E5.25843
G1 X136.349 Y141.108 E5.29621
G1 X135.305 Y141.187 E5.338
G1 X134.984 Y141.196 E5.35081
G1 X134.67 Y141.2 E5.36335
G1 X85.563 Y141.199 E7.32331
G1 X84.865 Y141.19 E7.35117
G1 X83.92 Y141.138 E7.38895
G1 X82.983 Y141.006 E7.42672
G1 X82.06 Y140.796 E7.4645
G1 X81.158 Y140.508 E7.50229
G1 X80.284 Y140.146 E7.54004
G1 X79.444 Y139.71 E7.57782
G1 X78.643 Y139.206 E7.61559
G1 X77.888 Y138.636 E7.65335
G1 X77.183 Y138.004 E7.69114
G1 X76.535 Y137.314 E7.72892
G1 X75.947 Y136.573 E7.76667
G1 X75.424 Y135.784 E7.80445
G1 X74.969 Y134.954 E7.84223
G1 X74.586 Y134.089 E7.87999
G1 X74.277 Y133.194 E7.91778
G1 X74.045 Y132.277 E7.95553
G1 X73.891 Y131.343 E7.99331
G1 X73.813 Y130.294 E8.03529
G1 X73.804 Y129.961 E8.04859
G1 X73.8 Y129.658 E8.06068
G1 X73.801 Y90.522 E9.62269
G1 X73.81 Y89.857 E9.64923
G1 X73.863 Y88.913 E9.68697
G1 X73.995 Y87.975 E9.72477
G1 X74.206 Y87.053 E9.76252
G1 X74.494 Y86.152 E9.80028
G1 X74.857 Y85.278 E9.83805
G1 X75.293 Y84.437 E9.87586
G1 X75.798 Y83.637 E9.91362
G1 X76.369 Y82.882 E9.9514
G1 X77.001 Y82.178 E9.98916
G0 F6000 X77.472 Y82.386
G1 F1200 X78.158 Y81.764 E10.02612
G1 X78.895 Y81.204 E10.06306
G1 X79.677 Y80.709 E10.1
G1 X80.5 Y80.284 E10.13697
G1 X81.356 Y79.931 E10.17392
G1 X82.239 Y79.653 E10.21087
G1 X83.143 Y79.453 E10.24782
G1 X84.061 Y79.331 E10.28479
G1 X84.709 Y79.293 E10.31069
G1 X85.03 Y79.284 E10.32351
G1 X85.33 Y79.28 E10.33549
G1 X134.293 Y79.28 E12.2897
G1 X135.145 Y79.291 E12.32371
G1 X136.069 Y79.344 E12.36065
G1 X136.985 Y79.477 E12.3976
G1 X137.887 Y79.688 E12.43457
G1 X138.766 Y79.977 E12.4715
G1 X139.618 Y80.34 E12.50846
G1 X140.435 Y80.775 E12.5454
G1 X141.212 Y81.279 E12.58237
G1 X141.942 Y81.849 E12.61933
G1 X142.62 Y82.479 E12.65627
G1 X143.241 Y83.165 E12.6932
G1 X143.801 Y83.903 E12.73018
G1 X144.295 Y84.686 E12.76713
G1 X144.72 Y85.508 E12.80406
G1 X145.072 Y86.365 E12.84104
G1 X145.349 Y87.248 E12.87798
G1 X145.549 Y88.152 E12.91493
G1 X145.67 Y89.07 E12.95189
G1 X145.707 Y89.709 E12.97743
G1 X145.716 Y90.029 E12.99021
G1 X145.72 Y90.33 E13.00223
G1 X145.719 Y129.397 E14.56147
G1 X145.71 Y130.124 E14.59049
G1 X145.659 Y131.048 E14.62743
G1 X145.528 Y131.965 E14.6644
G1 X145.318 Y132.866 E14.70132
G1 X145.032 Y133.747 E14.73829
G1 X144.67 Y134.599 E14.77524
G1 X144.236 Y135.417 E14.8122
G1 X143.734 Y136.195 E14.84915
G1 X143.166 Y136.926 E14.8861
G1 X142.537 Y137.605 E14.92304
G1 X141.852 Y138.228 E14.96
G1 X141.115 Y138.789 E14.99697
G1 X140.333 Y139.285 E15.03393
G1 X139.511 Y139.711 E15.07088
G1 X138.656 Y140.065 E15.10781
G1 X137.773 Y140.344 E15.14477
G1 X136.869 Y140.545 E15.18173
G1 X135.952 Y140.668 E15.21866
G1 X135.291 Y140.707 E15.24509
G1 X134.97 Y140.716 E15.25791
G1 X134.67 Y140.72 E15.26988
G1 X85.569 Y140.719 E17.22961
G1 X84.871 Y140.71 E17.25747
G1 X83.946 Y140.658 E17.29445
G1 X83.03 Y140.527 E17.33138
G1 X82.128 Y140.317 E17.36834
G1 X81.248 Y140.03 E17.40528
G1 X80.396 Y139.668 E17.44223
G1 X79.578 Y139.233 E17.47921
G1 X78.801 Y138.73 E17.51615
G1 X78.07 Y138.162 E17.5531
G1 X77.391 Y137.533 E17.59004
G1 X76.768 Y136.847 E17.62703
G1 X76.208 Y136.111 E17.66394
G1 X75.712 Y135.329 E17.7009
G1 X75.286 Y134.506 E17.73789
G1 X74.933 Y133.651 E17.7748
G1 X74.655 Y132.768 E17.81175
G1 X74.454 Y131.864 E17.84871
G1 X74.332 Y130.946 E17.88568
G1 X74.293 Y130.281 E17.91226
G1 X74.284 Y129.948 E17.92556
G1 X74.28 Y129.658 E17.93713
G1 X74.281 Y90.529 E19.49886
G1 X74.29 Y89.864 E19.5254
G1 X74.342 Y88.94 E19.56234
G1 X74.475 Y88.023 E19.59932
G1 X74.685 Y87.122 E19.63624
G1 X74.973 Y86.242 E19.6732
G1 X75.335 Y85.39 E19.71015
G1 X75.77 Y84.572 E19.74713
G1 X76.274 Y83.795 E19.78409
G1 X76.842 Y83.065 E19.82101
G1 X77.472 Y82.386 E19.85798
G0 F6000 X77.942 Y82.599
G1 F1200 X78.624 Y82.004 E19.8941
G1 X79.355 Y81.471 E19.93021
G1 X80.131 Y81.006 E19.96631
G1 X80.945 Y80.61 E20.00244
G1 X81.791 Y80.288 E20.03857
G1 X82.661 Y80.042 E20.07466
G1 X83.55 Y79.873 E20.11077
G1 X84.722 Y79.773 E20.15772
G1 X85.043 Y79.764 E20.17054
G1 X85.33 Y79.76 E20.18199
G1 X134.293 Y79.76 E22.13621
G1 X135.138 Y79.771 E22.16994
G1 X136.041 Y79.824 E22.20604
G1 X136.936 Y79.956 E22.24215
G1 X137.816 Y80.167 E22.27827
G1 X138.674 Y80.455 E22.31439
G1 X139.503 Y80.818 E22.35051
G1 X140.297 Y81.252 E22.38663
G1 X141.049 Y81.755 E22.42274
G1 X141.755 Y82.322 E22.45888
G1 X142.407 Y82.949 E22.49498
G1 X143.001 Y83.631 E22.53108
G1 X143.533 Y84.363 E22.56719
G1 X143.998 Y85.139 E22.6033
G1 X144.393 Y85.953 E22.63941
G1 X144.715 Y86.799 E22.67554
G1 X144.96 Y87.67 E22.71165
G1 X145.128 Y88.559 E22.74776
G1 X145.227 Y89.722 E22.79435
G1 X145.236 Y90.042 E22.80713
G1 X145.24 Y90.33 E22.81862
G1 X145.239 Y129.391 E24.37763
G1 X145.23 Y130.118 E24.40665
G1 X145.179 Y131.021 E24.44275
G1 X145.048 Y131.917 E24.47889
G1 X144.839 Y132.797 E24.51499
G1 X144.553 Y133.655 E24.55109
G1 X144.192 Y134.485 E24.58721
G1 X143.759 Y135.28 E24.62334
G1 X143.258 Y136.033 E24.65944
G1 X142.693 Y136.74 E24.69556
G1 X142.067 Y137.393 E24.73167
G1 X141.386 Y137.989 E24.76778
G1 X140.655 Y138.522 E24.80389
G1 X139.879 Y138.989 E24.84004
G1 X139.066 Y139.385 E24.87613
G1 X138.221 Y139.708 E24.91224
G1 X137.35 Y139.956 E24.94838
G1 X136.461 Y140.125 E24.9845
G1 X135.278 Y140.227 E25.03189
G1 X134.957 Y140.236 E25.04471
G1 X134.67 Y140.24 E25.05617
G1 X85.575 Y140.239 E27.01565
G1 X84.877 Y140.23 E27.04351
G1 X83.974 Y140.179 E27.07961
G1 X83.078 Y140.047 E27.11576
G1 X82.198 Y139.838 E27.15186
G1 X81.34 Y139.551 E27.18797
G1 X80.51 Y139.19 E27.22409
G1 X79.716 Y138.757 E27.26019
G1 X78.962 Y138.255 E27.29634
G1 X78.256 Y137.689 E27.33246
G1 X77.603 Y137.063 E27.36856
G1 X77.008 Y136.382 E27.40466
G1 X76.475 Y135.65 E27.4408
G1 X76.009 Y134.875 E27.47689
G1 X75.613 Y134.061 E27.51302
G1 X75.29 Y133.216 E27.54912
G1 X75.043 Y132.345 E27.58526
G1 X74.874 Y131.456 E27.62138
G1 X74.773 Y130.268 E27.66896
G1 X74.764 Y129.935 E27.68226
G1 X74.76 Y129.658 E27.69332
G1 X74.761 Y90.535 E29.2548
G1 X74.77 Y89.87 E29.28134
G1 X74.822 Y88.967 E29.31744
G1 X74.954 Y88.072 E29.35355
G1 X75.164 Y87.192 E29.38966
G1 X75.451 Y86.334 E29.42577
G1 X75.813 Y85.504 E29.46191
G1 X76.247 Y84.71 E29.49803
G1 X76.749 Y83.957 E29.53415
G1 X77.315 Y83.252 E29.57023
G1 X77.942 Y82.599 E29.60636
G1 F2700 E27.10636
;MESH:niptiras_orthogonios.stl
G0 F6000 X107.726 Y111.023
G0 X105.275 Y110.365
G0 X107.136 Y113.317
G0 X109.503 Y115.685
;TYPE:WALL-INNER
G1 F2700 E29.60636
G1 F1200 X110.044 Y115.65 E29.628
G1 X110.578 Y115.546 E29.64971
G1 X111.109 Y115.365 E29.6721
G1 X111.6 Y115.121 E29.69399
G1 X112.05 Y114.82 E29.7156
G1 X112.462 Y114.46 E29.73743
G1 X112.827 Y114.039 E29.75967
G1 X113.124 Y113.591 E29.78112
G1 X113.366 Y113.105 E29.80279
G1 X113.544 Y112.583 E29.82481
G1 X113.586 Y112.37 E29.83347
G1 X113.633 Y112.273 E29.83777
G1 X113.687 Y111.495 E29.8689
G1 X113.649 Y110.946 E29.89086
G1 X113.544 Y110.416 E29.91243
G1 X113.365 Y109.894 E29.93445
G1 X113.124 Y109.405 E29.95621
G1 X112.82 Y108.951 E29.97802
G1 X112.46 Y108.538 E29.99988
G1 X112.042 Y108.176 E30.02195
G1 X111.594 Y107.876 E30.04347
G1 X111.103 Y107.634 E30.06532
G1 X110.58 Y107.455 E30.08739
G1 X110.047 Y107.35 E30.10907
G1 X109.494 Y107.313 E30.13119
G1 X108.946 Y107.351 E30.15311
G1 X108.417 Y107.456 E30.17464
G1 X107.892 Y107.635 E30.19678
G1 X107.4 Y107.879 E30.21869
G1 X106.95 Y108.182 E30.24035
G1 X106.538 Y108.542 E30.26218
G1 X106.176 Y108.955 E30.2841
G1 X106.159 Y108.982 E30.28538
G1 X105.874 Y109.411 E30.30593
G1 X105.634 Y109.897 E30.32757
G1 X105.459 Y110.415 E30.34939
G1 X105.454 Y110.443 E30.35052
G1 X105.35 Y110.945 E30.37099
G1 X105.315 Y111.5 E30.39318
G1 X105.35 Y112.044 E30.41494
G1 X105.456 Y112.583 E30.43686
G1 X105.635 Y113.106 E30.45893
G1 X105.876 Y113.595 E30.48068
G1 X106.18 Y114.05 E30.50253
G1 X106.54 Y114.461 E30.52433
G1 X106.955 Y114.822 E30.54629
G1 X107.406 Y115.124 E30.56795
G1 X107.897 Y115.366 E30.5898
G1 X108.417 Y115.544 E30.61173
G1 X108.956 Y115.65 E30.63366
G1 X109.503 Y115.685 E30.65553
G0 F6000 X109.503 Y115.204
G1 F1200 X109.982 Y115.173 E30.67469
G1 X110.454 Y115.081 E30.69389
G1 X110.924 Y114.921 E30.7137
G1 X111.359 Y114.705 E30.73309
G1 X111.757 Y114.438 E30.75221
G1 X112.121 Y114.12 E30.77151
G1 X112.444 Y113.748 E30.79117
G1 X112.708 Y113.35 E30.81023
G1 X112.922 Y112.92 E30.8294
G1 X113.079 Y112.459 E30.84884
G1 X113.127 Y112.215 E30.85876
G1 X113.161 Y112.146 E30.86183
G1 X113.206 Y111.495 E30.88788
G1 X113.172 Y111.01 E30.90728
G1 X113.079 Y110.541 E30.92637
G1 X112.921 Y110.079 E30.94585
G1 X112.707 Y109.646 E30.96513
G1 X112.438 Y109.243 E30.98447
G1 X112.12 Y108.879 E31.00376
G1 X111.75 Y108.558 E31.02331
G1 X111.353 Y108.293 E31.04236
G1 X110.947 Y108.093 E31.06043
G1 X110.918 Y108.078 E31.06173
G1 X110.889 Y108.069 E31.06294
G1 X110.455 Y107.92 E31.08126
G1 X109.984 Y107.827 E31.10042
G1 X109.495 Y107.794 E31.11998
G1 X109.01 Y107.828 E31.13938
G1 X108.542 Y107.921 E31.15843
G1 X108.077 Y108.079 E31.17803
G1 X107.642 Y108.295 E31.19741
G1 X107.243 Y108.563 E31.2166
G1 X106.878 Y108.882 E31.23594
G1 X106.558 Y109.247 E31.25532
G1 X106.291 Y109.651 E31.27465
G1 X106.093 Y110.052 E31.2925
G1 X106.078 Y110.081 E31.2938
G1 X105.923 Y110.54 E31.31314
G1 X105.918 Y110.568 E31.31427
G1 X105.835 Y110.975 E31.33085
G1 X105.827 Y111.009 E31.33224
G1 X105.796 Y111.5 E31.35188
G1 X105.827 Y111.982 E31.37116
G1 X105.921 Y112.458 E31.39052
G1 X106.079 Y112.921 E31.41005
G1 X106.293 Y113.354 E31.42932
G1 X106.562 Y113.757 E31.44866
G1 X106.88 Y114.12 E31.46792
G1 X107.247 Y114.44 E31.48736
G1 X107.647 Y114.707 E31.50655
G1 X108.053 Y114.907 E31.52462
G1 X108.082 Y114.922 E31.52592
G1 X108.111 Y114.931 E31.52713
G1 X108.542 Y115.079 E31.54532
G1 X109.018 Y115.173 E31.56468
G1 X109.503 Y115.204 E31.58408
G0 F6000 X109.503 Y114.723
G1 F1200 X109.92 Y114.696 E31.60076
G1 X110.33 Y114.616 E31.61743
G1 X110.739 Y114.477 E31.63467
G1 X111.117 Y114.289 E31.65152
G1 X111.464 Y114.056 E31.66821
G1 X111.78 Y113.78 E31.68495
G1 X112.061 Y113.457 E31.70204
G1 X112.292 Y113.109 E31.71871
G1 X112.478 Y112.735 E31.73538
G1 X112.614 Y112.334 E31.75228
G1 X112.668 Y112.063 E31.76331
G1 X112.689 Y112.02 E31.76522
G1 X112.725 Y111.496 E31.78618
G1 X112.695 Y111.074 E31.80307
G1 X112.614 Y110.666 E31.81967
G1 X112.477 Y110.263 E31.83666
G1 X112.291 Y109.887 E31.8534
G1 X112.056 Y109.536 E31.87026
G1 X111.78 Y109.22 E31.88701
G1 X111.458 Y108.94 E31.90404
G1 X111.112 Y108.709 E31.92064
G1 X110.734 Y108.522 E31.93747
G1 X110.331 Y108.385 E31.95446
G1 X109.921 Y108.304 E31.97114
G1 X109.496 Y108.275 E31.98814
G1 X109.074 Y108.305 E32.00503
G1 X108.666 Y108.386 E32.02163
G1 X108.262 Y108.523 E32.03866
G1 X107.883 Y108.711 E32.05554
G1 X107.536 Y108.944 E32.07223
G1 X107.218 Y109.222 E32.08908
G1 X106.941 Y109.539 E32.10589
G1 X106.708 Y109.891 E32.12273
G1 X106.522 Y110.265 E32.13941
G1 X106.387 Y110.665 E32.15626
G1 X106.304 Y111.072 E32.17283
G1 X106.277 Y111.5 E32.18995
G1 X106.304 Y111.92 E32.20675
G1 X106.386 Y112.334 E32.22359
G1 X106.523 Y112.737 E32.24058
G1 X106.709 Y113.113 E32.25732
G1 X106.944 Y113.464 E32.27418
G1 X107.22 Y113.78 E32.29093
G1 X107.539 Y114.058 E32.30782
G1 X107.888 Y114.291 E32.32457
G1 X108.266 Y114.478 E32.3414
G1 X108.666 Y114.614 E32.35826
G1 X109.08 Y114.696 E32.3751
G1 X109.503 Y114.723 E32.39202
G0 F6000 X109.503 Y114.242
;TYPE:WALL-OUTER
G1 F1200 X109.858 Y114.219 E32.40622
G1 X110.206 Y114.151 E32.42037
G1 X110.554 Y114.033 E32.43504
G1 X110.875 Y113.873 E32.44935
G1 X111.171 Y113.674 E32.46359
G1 X111.44 Y113.44 E32.47782
G1 X111.678 Y113.166 E32.4923
G1 X111.876 Y112.868 E32.50658
G1 X112.034 Y112.55 E32.52076
G1 X112.149 Y112.21 E32.53508
G1 X112.209 Y111.907 E32.54741
G1 X112.217 Y111.891 E32.54812
G1 X112.244 Y111.497 E32.56389
G1 X112.218 Y111.138 E32.57825
G1 X112.149 Y110.79 E32.59241
G1 X112.033 Y110.447 E32.60686
G1 X111.875 Y110.128 E32.62107
G1 X111.674 Y109.829 E32.63545
G1 X111.44 Y109.56 E32.64968
G1 X111.166 Y109.322 E32.66417
G1 X110.871 Y109.125 E32.67833
G1 X110.55 Y108.966 E32.69262
G1 X110.207 Y108.85 E32.70707
G1 X109.858 Y108.781 E32.72127
G1 X109.497 Y108.756 E32.73572
G1 X109.138 Y108.782 E32.75008
G1 X108.79 Y108.851 E32.76424
G1 X108.447 Y108.967 E32.77869
G1 X108.125 Y109.127 E32.79304
G1 X107.829 Y109.326 E32.80728
G1 X107.558 Y109.562 E32.82162
G1 X107.324 Y109.831 E32.83585
G1 X107.124 Y110.132 E32.85028
G1 X106.966 Y110.45 E32.86445
G1 X106.851 Y110.79 E32.87877
G1 X106.781 Y111.135 E32.89282
G1 X106.758 Y111.5 E32.90742
G1 X106.781 Y111.858 E32.92174
G1 X106.851 Y112.21 E32.93606
G1 X106.967 Y112.553 E32.95052
G1 X107.125 Y112.872 E32.96472
G1 X107.326 Y113.171 E32.9791
G1 X107.56 Y113.44 E32.99333
G1 X107.831 Y113.676 E33.00768
G1 X108.129 Y113.875 E33.02198
G1 X108.45 Y114.034 E33.03627
G1 X108.79 Y114.149 E33.0506
G1 X109.142 Y114.219 E33.06492
G1 X109.503 Y114.242 E33.07936
G0 F6000 X109.503 Y114.77
G1 F2700 E30.57936
G0 F6000 X112.166 Y114.972
G0 X110.618 Y112.956
G0 X112.166 Y130.665
G0 X112.166 Y128.11
G0 X133.32 Y128.32
;TYPE:WALL-INNER
G1 F2700 E33.07936
G1 F1200 X86.68 Y128.32 E34.94087
G1 X86.68 Y91.68 E36.40325
G1 X133.32 Y91.68 E38.26475
G1 X133.32 Y128.32 E39.72713
G0 F6000 X133.8 Y128.8
G1 F1200 X86.2 Y128.8 E41.62695
G1 X86.2 Y91.2 E43.12765
G1 X133.8 Y91.2 E45.02747
G1 X133.8 Y128.8 E46.52816
G0 F6000 X134.28 Y129.28
G1 F1200 X85.72 Y129.28 E48.4663
G1 X85.72 Y90.72 E50.00531
G1 X134.28 Y90.72 E51.94345
G1 X134.28 Y129.28 E53.48246
G0 F6000 X134.76 Y129.76
;TYPE:WALL-OUTER
G1 F1200 X85.24 Y129.76 E55.45891
G1 X85.24 Y90.24 E57.03624
G1 X134.76 Y90.24 E59.01269
G1 X134.76 Y129.76 E60.59002
G0 F6000 X134.49 Y129.49
