;FLAVOR:Marlin
;TIME:2738
;Filament used: 2.26643m
;Layer height: 0.2
;MINX:73.8
;MINY:78.806
;MINZ:0.2
;MAXX:146.2
;MAXY:141.099
;MAXZ:3.2
;Generated with Cura_SteamEngine 4.7.1
M140 S60
M105
M190 S60
M104 S220
M105
M109 S220
M82 ;absolute extrusion mode
M201 X500.00 Y500.00 Z100.00 E5000.00 ;Setup machine max acceleration
M203 X500.00 Y500.00 Z10.00 E50.00 ;Setup machine max feedrate
M204 P500.00 R1000.00 T500.00 ;Setup Print/Retract/Travel acceleration
M205 X8.00 Y8.00 Z0.40 E5.00 ;Setup Jerk
M220 S100 ;Reset Feedrate
M221 S100 ;Reset Flowrate

G28 ;Home

G92 E0 ;Reset Extruder
G1 Z2.0 F3000 ;Move Z Axis up
G1 X10.1 Y20 Z0.28 F5000.0 ;Move to start position
G1 X10.1 Y200.0 Z0.28 F1500.0 E15 ;Draw the first line
G1 X10.4 Y200.0 Z0.28 F5000.0 ;Move to side a little
G1 X10.4 Y20 Z0.28 F1500.0 E30 ;Draw the second line
G92 E0 ;Reset Extruder
G1 Z2.0 F3000 ;Move Z Axis up

G92 E0
G92 E0
G1 F2700 E-2.5
;LAYER_COUNT:16
;LAYER:0
M107
G0 F6000 X77.202 Y82.096 Z0.2
;TYPE:SKIRT
G1 F2700 E0
G1 F1200 X77.899 Y81.456 E0.03777
G1 X78.648 Y80.877 E0.07555
G1 X79.442 Y80.363 E0.1133
G1 X80.278 Y79.918 E0.1511
G1 X81.147 Y79.545 E0.18885
G1 X82.045 Y79.247 E0.22661
G1 X82.966 Y79.026 E0.26441
G1 X83.901 Y78.883 E0.30216
G1 X84.744 Y78.822 E0.3359
G1 X84.892 Y78.817 E0.34181
G1 X85.133 Y78.812 E0.35143
G1 X85.679 Y78.806 E0.37322
G1 X134.336 Y78.807 E2.31523
G1 X135.038 Y78.817 E2.34325
G1 X135.982 Y78.871 E2.38099
G1 X136.919 Y79.004 E2.41876
G1 X137.842 Y79.215 E2.45655
G1 X138.743 Y79.504 E2.49432
G1 X139.617 Y79.868 E2.5321
G1 X140.456 Y80.304 E2.56984
G1 X141.256 Y80.81 E2.60762
G1 X142.011 Y81.381 E2.6454
G1 X142.798 Y82.096 E2.68784
G1 X142.91 Y82.208 E2.69416
G1 X143.55 Y82.905 E2.73193
G1 X144.129 Y83.654 E2.76971
G1 X144.643 Y84.448 E2.80747
G1 X145.088 Y85.284 E2.84526
G1 X145.461 Y86.153 E2.88301
G1 X145.759 Y87.051 E2.92077
G1 X145.98 Y87.972 E2.95857
G1 X146.123 Y88.907 E2.99633
G1 X146.183 Y89.72 E3.02886
G1 X146.188 Y89.857 E3.03433
G1 X146.194 Y90.116 E3.04467
G1 X146.2 Y90.642 E3.06567
G1 X146.199 Y95.171 E3.24643
G1 X146.189 Y95.869 E3.27429
G1 X146.163 Y96.489 E3.29906
G1 X146.132 Y96.857 E3.3138
G1 X146.03 Y97.886 E3.35507
G1 X146 Y98.16 E3.36607
G1 X145.782 Y100.666 E3.46647
G1 X145.634 Y103.184 E3.56714
G1 X145.558 Y105.697 E3.66749
G1 X145.552 Y108.21 E3.76779
G1 X145.618 Y110.722 E3.86808
G1 X145.753 Y113.192 E3.96681
G1 X145.968 Y115.782 E4.07054
G1 X146.127 Y117.28 E4.13066
G1 X146.185 Y118.125 E4.16447
G1 X146.195 Y118.455 E4.17765
G1 X146.2 Y118.794 E4.19118
G1 X146.199 Y129.317 E4.61117
G1 X146.189 Y130.044 E4.64019
G1 X146.136 Y130.989 E4.67797
G1 X146.003 Y131.926 E4.71574
G1 X145.792 Y132.848 E4.75349
G1 X145.504 Y133.75 E4.79128
G1 X145.141 Y134.624 E4.82905
G1 X144.705 Y135.464 E4.86683
G1 X144.199 Y136.264 E4.90461
G1 X143.628 Y137.019 E4.94239
G1 X142.996 Y137.722 E4.98012
G1 X142.306 Y138.37 E5.0179
G1 X141.564 Y138.958 E5.05569
G1 X140.775 Y139.48 E5.09344
G1 X139.945 Y139.934 E5.1312
G1 X139.079 Y140.317 E5.169
G1 X138.184 Y140.625 E5.20677
G1 X137.267 Y140.856 E5.24452
G1 X136.333 Y141.009 E5.28229
G1 X135.323 Y141.085 E5.32272
G1 X135.02 Y141.094 E5.33482
G1 X134.687 Y141.099 E5.34811
G1 X85.548 Y141.099 E7.30935
G1 X84.85 Y141.089 E7.33721
G1 X83.905 Y141.035 E7.37499
G1 X82.968 Y140.902 E7.41276
G1 X82.045 Y140.691 E7.45055
G1 X81.144 Y140.402 E7.48832
G1 X80.271 Y140.038 E7.52607
G1 X79.431 Y139.601 E7.56386
G1 X78.631 Y139.096 E7.60162
G1 X77.876 Y138.524 E7.63943
G1 X77.173 Y137.891 E7.67718
G1 X76.526 Y137.201 E7.71494
G1 X75.939 Y136.459 E7.7527
G1 X75.416 Y135.67 E7.79048
G1 X74.963 Y134.839 E7.82825
G1 X74.581 Y133.973 E7.86603
G1 X74.273 Y133.078 E7.90381
G1 X74.043 Y132.16 E7.94158
G1 X73.89 Y131.226 E7.97935
G1 X73.815 Y130.211 E8.01998
G1 X73.806 Y129.897 E8.03251
G1 X73.801 Y129.577 E8.04529
G1 X73.801 Y119.01 E8.46704
G1 X73.811 Y118.313 E8.49486
G1 X73.836 Y117.712 E8.51887
G1 X73.868 Y117.32 E8.53457
G1 X73.979 Y116.216 E8.57885
G1 X73.985 Y116.167 E8.58082
G1 X74.208 Y113.64 E8.68207
G1 X74.36 Y111.121 E8.78279
G1 X74.439 Y108.646 E8.88163
G1 X74.447 Y106.132 E8.98196
G1 X74.384 Y103.575 E9.08405
G1 X74.256 Y101.149 E9.18101
G1 X73.925 Y97.38 E9.33202
G1 X73.885 Y97.017 E9.3466
G1 X73.82 Y95.997 E9.38739
G1 X73.802 Y94.997 E9.42731
G1 X73.8 Y94.795 E9.43537
G1 X73.801 Y90.646 E9.60097
G1 X73.811 Y89.964 E9.62819
G1 X73.865 Y89.019 E9.66597
G1 X73.998 Y88.082 E9.70374
G1 X74.21 Y87.16 E9.7415
G1 X74.5 Y86.259 E9.77928
G1 X74.864 Y85.385 E9.81706
G1 X75.3 Y84.546 E9.8548
G1 X75.806 Y83.746 E9.89258
G1 X76.378 Y82.992 E9.93036
G1 X77.09 Y82.208 E9.97263
G1 X77.202 Y82.096 E9.97895
G0 F6000 X77.542 Y82.436
G1 F1200 X78.224 Y81.81 E10.0159
G1 X78.958 Y81.245 E10.05287
G1 X79.738 Y80.746 E10.08982
G1 X80.558 Y80.316 E10.12678
G1 X81.412 Y79.959 E10.16372
G1 X82.293 Y79.676 E10.20065
G1 X83.196 Y79.47 E10.23762
G1 X84.113 Y79.344 E10.27456
G1 X84.76 Y79.302 E10.30044
G1 X84.908 Y79.297 E10.30635
G1 X85.139 Y79.292 E10.31557
G1 X85.679 Y79.286 E10.33713
G1 X134.176 Y79.286 E12.27275
G1 X135.031 Y79.297 E12.30687
G1 X135.955 Y79.35 E12.34381
G1 X136.871 Y79.483 E12.38076
G1 X137.773 Y79.694 E12.41773
G1 X138.653 Y79.983 E12.4547
G1 X139.504 Y80.346 E12.49162
G1 X140.321 Y80.781 E12.52857
G1 X141.098 Y81.285 E12.56553
G1 X141.828 Y81.854 E12.60247
G1 X142.458 Y82.436 E12.6367
G1 X142.57 Y82.548 E12.64303
G1 X143.196 Y83.23 E12.67997
G1 X143.761 Y83.964 E12.71694
G1 X144.26 Y84.744 E12.7539
G1 X144.69 Y85.564 E12.79086
G1 X145.047 Y86.418 E12.8278
G1 X145.33 Y87.299 E12.86473
G1 X145.536 Y88.202 E12.9017
G1 X145.662 Y89.119 E12.93864
G1 X145.703 Y89.737 E12.96336
G1 X145.708 Y89.874 E12.96883
G1 X145.714 Y90.123 E12.97877
G1 X145.72 Y90.642 E12.99949
G1 X145.719 Y95.165 E13.18001
G1 X145.709 Y95.863 E13.20787
G1 X145.684 Y96.455 E13.23152
G1 X145.655 Y96.809 E13.2457
G1 X145.553 Y97.838 E13.28697
G1 X145.524 Y98.097 E13.29737
G1 X145.303 Y100.633 E13.39897
G1 X145.154 Y103.173 E13.50052
G1 X145.078 Y105.681 E13.60067
G1 X145.072 Y108.222 E13.70209
G1 X145.138 Y110.725 E13.80202
G1 X145.276 Y113.259 E13.90331
G1 X145.486 Y115.786 E14.00451
G1 X145.65 Y117.331 E14.06653
G1 X145.705 Y118.139 E14.09885
G1 X145.715 Y118.469 E14.11203
G1 X145.72 Y118.794 E14.125
G1 X145.719 Y129.31 E14.54472
G1 X145.709 Y130.037 E14.57373
G1 X145.656 Y130.962 E14.61071
G1 X145.524 Y131.878 E14.64765
G1 X145.313 Y132.78 E14.68462
G1 X145.025 Y133.66 E14.72158
G1 X144.663 Y134.511 E14.75849
G1 X144.228 Y135.329 E14.79547
G1 X143.724 Y136.106 E14.83243
G1 X143.155 Y136.836 E14.86937
G1 X142.525 Y137.515 E14.90634
G1 X141.839 Y138.137 E14.9433
G1 X141.102 Y138.697 E14.98024
G1 X140.32 Y139.191 E15.01716
G1 X139.497 Y139.616 E15.05413
G1 X138.641 Y139.969 E15.09109
G1 X137.758 Y140.247 E15.12803
G1 X136.854 Y140.447 E15.16499
G1 X135.936 Y140.568 E15.20194
G1 X135.308 Y140.605 E15.22705
G1 X135.005 Y140.614 E15.23915
G1 X134.687 Y140.619 E15.25184
G1 X85.554 Y140.619 E17.21285
G1 X84.856 Y140.609 E17.24071
G1 X83.932 Y140.556 E17.27765
G1 X83.016 Y140.423 E17.31459
G1 X82.114 Y140.212 E17.35156
G1 X81.235 Y139.923 E17.38849
G1 X80.383 Y139.56 E17.42546
G1 X79.566 Y139.125 E17.4624
G1 X78.789 Y138.621 E17.49936
G1 X78.059 Y138.051 E17.53633
G1 X77.381 Y137.421 E17.57327
G1 X76.76 Y136.735 E17.6102
G1 X76.2 Y135.997 E17.64718
G1 X75.706 Y135.214 E17.68413
G1 X75.281 Y134.392 E17.72106
G1 X74.929 Y133.535 E17.75804
G1 X74.652 Y132.652 E17.79497
G1 X74.452 Y131.748 E17.83193
G1 X74.331 Y130.83 E17.86888
G1 X74.294 Y130.197 E17.89419
G1 X74.285 Y129.883 E17.90673
G1 X74.281 Y129.577 E17.91894
G1 X74.281 Y119.017 E18.34042
G1 X74.291 Y118.32 E18.36824
G1 X74.315 Y117.745 E18.39121
G1 X74.346 Y117.368 E18.4063
G1 X74.456 Y116.271 E18.45031
G1 X74.465 Y116.19 E18.45356
G1 X74.685 Y113.71 E18.55293
G1 X74.838 Y111.165 E18.65469
G1 X74.919 Y108.627 E18.75604
G1 X74.927 Y106.122 E18.85602
G1 X74.864 Y103.575 E18.95771
G1 X74.734 Y101.11 E19.05623
G1 X74.402 Y97.334 E19.20752
G1 X74.362 Y96.965 E19.22233
G1 X74.3 Y95.988 E19.2614
G1 X74.282 Y94.988 E19.30132
G1 X74.28 Y94.795 E19.30903
G1 X74.281 Y90.653 E19.47434
G1 X74.291 Y89.971 E19.50157
G1 X74.345 Y89.047 E19.53851
G1 X74.478 Y88.13 E19.57549
G1 X74.689 Y87.229 E19.61242
G1 X74.978 Y86.349 E19.64939
G1 X75.342 Y85.498 E19.68633
G1 X75.777 Y84.681 E19.72328
G1 X76.282 Y83.904 E19.76026
G1 X76.851 Y83.174 E19.7972
G1 X77.43 Y82.548 E19.83124
G1 X77.542 Y82.436 E19.83756
G0 F6000 X77.881 Y82.775
G1 F1200 X78.549 Y82.164 E19.87369
G1 X79.268 Y81.615 E19.9098
G1 X80.032 Y81.131 E19.94589
G1 X80.836 Y80.716 E19.982
G1 X81.674 Y80.374 E20.01813
G1 X82.539 Y80.107 E20.05426
G1 X83.424 Y79.918 E20.09038
G1 X84.322 Y79.807 E20.12649
G1 X84.776 Y79.782 E20.14464
G1 X85.145 Y79.772 E20.15937
G1 X85.679 Y79.766 E20.18069
G1 X134.176 Y79.766 E22.11631
G1 X135.024 Y79.777 E22.15016
G1 X135.927 Y79.83 E22.18626
G1 X136.822 Y79.962 E22.22237
G1 X137.702 Y80.173 E22.25849
G1 X138.56 Y80.461 E22.29461
G1 X139.389 Y80.823 E22.33071
G1 X140.183 Y81.257 E22.36683
G1 X140.936 Y81.76 E22.40297
G1 X141.641 Y82.327 E22.43908
G1 X142.119 Y82.775 E22.46523
G1 X142.231 Y82.887 E22.47155
G1 X142.842 Y83.555 E22.50768
G1 X143.391 Y84.274 E22.54379
G1 X143.875 Y85.038 E22.57988
G1 X144.29 Y85.842 E22.61599
G1 X144.632 Y86.68 E22.65212
G1 X144.899 Y87.545 E22.68825
G1 X145.088 Y88.43 E22.72437
G1 X145.223 Y89.755 E22.77753
G1 X145.234 Y90.129 E22.79246
G1 X145.24 Y90.642 E22.81294
G1 X145.239 Y95.158 E22.99318
G1 X145.229 Y95.856 E23.02104
G1 X145.205 Y96.422 E23.04365
G1 X145.177 Y96.762 E23.05727
G1 X145.058 Y97.955 E23.10512
G1 X145.044 Y98.073 E23.10986
G1 X144.822 Y100.633 E23.21242
G1 X144.675 Y103.136 E23.31249
G1 X144.598 Y105.665 E23.41348
G1 X144.592 Y108.233 E23.51597
G1 X144.658 Y110.728 E23.61559
G1 X144.797 Y113.291 E23.71803
G1 X145.008 Y115.833 E23.81984
G1 X145.173 Y117.382 E23.88201
G1 X145.225 Y118.154 E23.91289
G1 X145.235 Y118.484 E23.92607
G1 X145.24 Y118.794 E23.93845
G1 X145.239 Y129.304 E24.35792
G1 X145.229 Y130.031 E24.38694
G1 X145.177 Y130.934 E24.42304
G1 X145.045 Y131.829 E24.45915
G1 X144.834 Y132.709 E24.49527
G1 X144.547 Y133.568 E24.53142
G1 X144.185 Y134.397 E24.56752
G1 X143.751 Y135.191 E24.60364
G1 X143.249 Y135.944 E24.63976
G1 X142.682 Y136.649 E24.67586
G1 X142.056 Y137.302 E24.71197
G1 X141.374 Y137.897 E24.74809
G1 X140.642 Y138.429 E24.78421
G1 X139.866 Y138.895 E24.82034
G1 X139.052 Y139.29 E24.85645
G1 X138.206 Y139.612 E24.89258
G1 X137.336 Y139.858 E24.92866
G1 X136.446 Y140.026 E24.96481
G1 X135.294 Y140.125 E25.01096
G1 X134.991 Y140.134 E25.02306
G1 X134.687 Y140.139 E25.03519
G1 X85.561 Y140.139 E26.99592
G1 X84.863 Y140.129 E27.02378
G1 X83.96 Y140.076 E27.05988
G1 X83.065 Y139.944 E27.09599
G1 X82.185 Y139.733 E27.13211
G1 X81.327 Y139.445 E27.16823
G1 X80.498 Y139.082 E27.20435
G1 X79.704 Y138.648 E27.24047
G1 X78.952 Y138.145 E27.27657
G1 X78.246 Y137.578 E27.31272
G1 X77.594 Y136.951 E27.34882
G1 X77 Y136.269 E27.38492
G1 X76.468 Y135.537 E27.42103
G1 X76.003 Y134.761 E27.45714
G1 X75.608 Y133.947 E27.49325
G1 X75.286 Y133.101 E27.52938
G1 X75.041 Y132.23 E27.56549
G1 X74.873 Y131.341 E27.6016
G1 X74.774 Y130.183 E27.64799
G1 X74.765 Y129.869 E27.66053
G1 X74.761 Y129.577 E27.67218
G1 X74.761 Y119.024 E28.09337
G1 X74.771 Y118.327 E28.1212
G1 X74.794 Y117.777 E28.14317
G1 X74.823 Y117.415 E28.15766
G1 X74.916 Y116.481 E28.19512
G1 X74.942 Y116.25 E28.2044
G1 X75.166 Y113.711 E28.30613
G1 X75.317 Y111.208 E28.40621
G1 X75.399 Y108.643 E28.50864
G1 X75.407 Y106.112 E28.60966
G1 X75.345 Y103.574 E28.71099
G1 X75.213 Y101.071 E28.81103
G1 X74.88 Y97.282 E28.96284
G1 X74.839 Y96.912 E28.97769
G1 X74.78 Y95.979 E29.01501
G1 X74.762 Y94.979 E29.05492
G1 X74.76 Y94.795 E29.06227
G1 X74.761 Y90.66 E29.22731
G1 X74.771 Y89.978 E29.25453
G1 X74.824 Y89.075 E29.29063
G1 X74.957 Y88.179 E29.32678
G1 X75.168 Y87.3 E29.36286
G1 X75.456 Y86.442 E29.39899
G1 X75.819 Y85.613 E29.43511
G1 X76.254 Y84.819 E29.47124
G1 X76.757 Y84.067 E29.50735
G1 X77.324 Y83.362 E29.54346
G1 X77.769 Y82.887 E29.56944
G1 X77.881 Y82.775 E29.57576
G1 F2700 E27.07576
G0 F6000 X84.588 Y89.595
G0 X85.24 Y90.246
;TYPE:SUPPORT
G1 F2700 E29.57576
G1 F1200 X134.76 Y90.246 E31.55221
G1 X134.76 Y95.361 E31.75636
G1 X85.24 Y95.361 E33.73281
G1 X85.24 Y90.246 E33.93696
G0 F6000 X85.72 Y90.726
G1 F1200 X134.28 Y90.726 E35.8751
G1 X134.28 Y94.881 E36.04093
G1 X85.72 Y94.881 E37.97907
G1 X85.72 Y90.726 E38.1449
G0 F6000 X88.011 Y90.846
G1 F1200 X88.011 Y94.761 E38.30116
G0 F6000 X85.84 Y93.345
G1 F1200 X134.16 Y93.345 E40.22971
G0 F6000 X133.35 Y94.761
G1 F1200 X133.35 Y90.846 E40.38597
G0 F6000 X130.683 Y90.846
G1 F1200 X130.683 Y94.761 E40.54222
G0 F6000 X128.016 Y94.761
G1 F1200 X128.016 Y90.846 E40.69848
G0 F6000 X125.349 Y90.846
G1 F1200 X125.349 Y94.761 E40.85474
G0 F6000 X122.682 Y94.761
G1 F1200 X122.682 Y90.846 E41.01099
G0 F6000 X120.015 Y90.846
G1 F1200 X120.015 Y94.761 E41.16725
G0 F6000 X117.348 Y94.761
G1 F1200 X117.348 Y90.846 E41.32351
G0 F6000 X114.681 Y90.846
G1 F1200 X114.681 Y94.761 E41.47976
G0 F6000 X112.014 Y94.761
G1 F1200 X112.014 Y90.846 E41.63602
G0 F6000 X109.347 Y90.846
G1 F1200 X109.347 Y94.761 E41.79227
G0 F6000 X106.68 Y94.761
G1 F1200 X106.68 Y90.846 E41.94853
G0 F6000 X104.013 Y90.846
G1 F1200 X104.013 Y94.761 E42.10479
G0 F6000 X101.346 Y94.761
G1 F1200 X101.346 Y90.846 E42.26104
G0 F6000 X98.679 Y90.846
G1 F1200 X98.679 Y94.761 E42.4173
G0 F6000 X96.012 Y94.761
G1 F1200 X96.012 Y90.846 E42.57355
G0 F6000 X93.345 Y90.846
G1 F1200 X93.345 Y94.761 E42.72981
G0 F6000 X90.678 Y94.761
G1 F1200 X90.678 Y90.846 E42.88607
G1 F2700 E40.38607
;MESH:mirror1.stl
G0 F6000 X90.678 Y89.341
G0 X84.843 Y89.345
G0 X84.339 Y89.849
G0 X84.342 Y96.158
G0 X90.678 Y117.799
G0 X90.678 Y118.924
G0 X86.862 Y120.326
G0 X86.68 Y128.22
;TYPE:WALL-INNER
G1 F2700 E42.88607
G1 F1200 X86.68 Y127.981 E42.89561
G1 X86.68 Y120.144 E43.2084
G1 X133.32 Y120.144 E45.0699
G1 X133.32 Y128.219 E45.39219
G1 X86.919 Y128.22 E47.24416
G1 X86.68 Y128.22 E47.25033
G0 F6000 X86.2 Y128.7
G1 F1200 X86.2 Y128.461 E47.25987
G1 X86.2 Y119.664 E47.61098
G1 X133.8 Y119.664 E49.5108
G1 X133.8 Y128.699 E49.8714
G1 X86.439 Y128.7 E51.76168
G1 X86.2 Y128.7 E51.76786
G0 F6000 X85.72 Y129.18
G1 F1200 X85.72 Y128.941 E51.7774
G1 X85.72 Y119.184 E52.16682
G1 X134.28 Y119.184 E54.10496
G1 X134.28 Y129.179 E54.50388
G1 X85.959 Y129.18 E56.43247
G1 X85.72 Y129.18 E56.43865
G0 F6000 X85.24 Y129.66
;TYPE:WALL-OUTER
G1 F1200 X85.24 Y118.704 E56.87593
G1 X134.76 Y118.704 E58.85238
G1 X134.76 Y129.659 E59.28962
G1 X85.24 Y129.66 E61.26607
G0 F6000 X85.51 Y129.39
G0 X86.79 Y127.75
G0 X87.15 Y127.75
;TYPE:SKIN
G1 F1200 X87.15 Y120.614 E61.55088
G1 X132.85 Y120.614 E63.37487
G1 X132.85 Y127.749 E63.65964
G1 X87.15 Y127.75 E65.48362
G0 F6000 X87.498 Y127.549
G1 F1200 X87.35 Y127.4 E65.49201
G0 F6000 X87.35 Y126.722
G1 F1200 X88.177 Y127.549 E65.53869
G0 F6000 X88.856 Y127.549
G1 F1200 X87.35 Y126.043 E65.62369
G0 F6000 X87.35 Y125.364
G1 F1200 X89.535 Y127.549 E65.74702
G0 F6000 X90.214 Y127.549
G1 F1200 X87.35 Y124.685 E65.90868
G0 F6000 X87.35 Y124.006
G1 F1200 X90.892 Y127.549 E66.10863
G0 F6000 X91.571 Y127.549
G1 F1200 X87.35 Y123.327 E66.34691
G0 F6000 X87.35 Y122.649
G1 F1200 X92.25 Y127.549 E66.62349
G0 F6000 X92.929 Y127.549
G1 F1200 X87.35 Y121.97 E66.93839
G0 F6000 X87.35 Y121.291
G1 F1200 X93.608 Y127.549 E67.29162
G0 F6000 X94.287 Y127.549
G1 F1200 X87.551 Y120.814 E67.6718
G0 F6000 X88.23 Y120.814
G1 F1200 X94.965 Y127.549 E68.05195
G0 F6000 X95.644 Y127.549
G1 F1200 X88.909 Y120.814 E68.43211
G0 F6000 X89.588 Y120.814
G1 F1200 X96.323 Y127.549 E68.81226
G0 F6000 X97.002 Y127.549
G1 F1200 X90.267 Y120.814 E69.19241
G0 F6000 X90.945 Y120.814
G1 F1200 X97.681 Y127.549 E69.57259
G0 F6000 X98.359 Y127.549
G1 F1200 X91.624 Y120.814 E69.95274
G0 F6000 X92.303 Y120.814
G1 F1200 X99.038 Y127.549 E70.3329
G0 F6000 X99.717 Y127.549
G1 F1200 X92.982 Y120.814 E70.71305
G0 F6000 X93.661 Y120.814
G1 F1200 X100.396 Y127.549 E71.0932
G0 F6000 X101.075 Y127.549
G1 F1200 X94.34 Y120.814 E71.47335
